assets/icons/announce-icon.svg

<svg width="24" height="24" viewBox="0 0 24 24" fill="none" xmlns="http://www.w3.org/2000/svg">
<g clip-path="url(#clip0_1142:265)">
<path d="M16.6154 13.9695C16.6154 13.3114 16.4452 12.7345 16.1104 12.2557C15.7775 11.7748 15.3532 11.4286 14.8483 11.2292C14.3098 11.0163 13.3904 10.7643 12.1157 10.4815C11.296 10.3006 11.055 10.1477 10.9347 10.0341C10.7495 9.85569 10.6547 9.62584 10.6547 9.3723C10.6547 8.99292 10.8375 8.35353 12.0646 8.35353C12.6944 8.35353 13.2058 8.5323 13.5874 8.88553C13.7135 9.00369 13.8237 9.14584 13.9178 9.30061L13.9215 9.30492L13.9409 9.3403C13.9858 9.41753 14.0664 9.46584 14.1572 9.46584H16.1224C16.2612 9.46584 16.3735 9.35446 16.3735 9.21569C16.3729 9.17384 16.3375 9.04738 16.3003 8.94769C15.7775 7.57907 14.748 6.78953 13.1615 6.52707V5.392C13.1615 5.18061 12.9883 5.008 12.7757 5.008H11.236C11.0261 5.008 10.8538 5.18092 10.8538 5.392V6.57015C9.90736 6.76338 9.18735 7.1443 8.71197 7.70492C8.17966 8.344 7.91812 9.05261 7.91812 9.8723C7.91812 10.6077 8.15382 11.2385 8.63628 11.8068C9.11751 12.3729 10.3172 12.852 12.2077 13.2397C12.751 13.3486 13.1289 13.4831 13.3634 13.6452C13.6415 13.8354 13.7901 14.1222 13.7901 14.4658C13.7901 14.9246 13.516 15.4671 12.2163 15.4671C11.775 15.4671 11.399 15.4015 11.0744 15.2594C10.6184 15.0662 10.271 14.7348 10.0467 14.2711L10.0329 14.2477L10.028 14.2311C9.98643 14.1498 9.9012 14.0963 9.80797 14.0963H7.63474C7.49843 14.0963 7.38428 14.2095 7.38428 14.3378C7.38735 14.3751 7.40458 14.4529 7.40397 14.4557C7.92335 16.1505 9.05351 17.1188 10.8535 17.4169V18.608C10.8535 18.8197 11.0261 18.9923 11.2357 18.9923H12.7754C12.988 18.9923 13.1612 18.8194 13.1612 18.608V17.4188C14.1914 17.2517 15.02 16.8797 15.6221 16.3049C16.2901 15.6732 16.6154 14.9074 16.6154 13.9695Z" fill="white"/>
<path fill-rule="evenodd" clip-rule="evenodd" d="M12 1.53191C6.21863 1.53191 1.53191 6.21863 1.53191 12C1.53191 17.7813 6.21863 22.4681 12 22.4681C17.7813 22.4681 22.4681 17.7813 22.4681 12C22.4681 6.21863 17.7813 1.53191 12 1.53191ZM0 12C0 5.37258 5.37258 0 12 0C18.6274 0 24 5.37258 24 12C24 18.6274 18.6274 24 12 24C5.37258 24 0 18.6274 0 12Z" fill="white"/>
</g>
<defs>
<clipPath id="clip0_1142:265">
<rect width="24" height="24" fill="white"/>
</clipPath>
</defs>
</svg>

<svg width="24" height="24" fill="none" xmlns="http://www.w3.org/2000/svg"><g clip-path="url(#a)" fill="#fff"><path d="M16.615 13.97c0-.659-.17-1.236-.505-1.714a2.759 2.759 0 0 0-1.262-1.027c-.538-.213-1.458-.465-2.732-.747-.82-.181-1.061-.334-1.181-.448a.899.899 0 0 1-.28-.662c0-.38.183-1.018 1.41-1.018.63 0 1.14.178 1.522.532.127.118.237.26.33.415l.005.004.019.035a.249.249 0 0 0 .216.126h1.965a.25.25 0 0 0 .252-.25c-.001-.042-.037-.169-.074-.268-.523-1.369-1.552-2.158-3.139-2.42V5.391a.386.386 0 0 0-.385-.384h-1.54a.385.385 0 0 0-.382.384V6.57c-.947.193-1.667.574-2.142 1.135-.532.639-.794 1.348-.794 2.167 0 .736.236 1.367.718 1.935.482.566 1.681 1.045 3.572 1.433.543.109.92.243 1.155.405.279.19.427.477.427.82 0 .46-.274 1.002-1.574 1.002-.441 0-.817-.066-1.142-.208a1.972 1.972 0 0 1-1.027-.988l-.014-.023-.005-.017a.249.249 0 0 0-.22-.135H7.635a.25.25 0 0 0-.25.242c.002.037.02.115.019.118.52 1.695 1.65 2.663 3.45 2.96v1.192c0 .212.172.384.382.384h1.54a.386.386 0 0 0 .385-.384v-1.19c1.03-.166 1.859-.538 2.461-1.113.668-.632.993-1.398.993-2.335z"/><path fill-rule="evenodd" clip-rule="evenodd" d="M12 1.532C6.219 1.532 1.532 6.219 1.532 12S6.219 22.468 12 22.468 22.468 17.781 22.468 12 17.781 1.532 12 1.532zM0 12C0 5.373 5.373 0 12 0s12 5.373 12 12-5.373 12-12 12S0 18.627 0 12z"/></g><defs><clipPath id="a"><path fill="#fff" d="M0 0h24v24H0z"/></clipPath></defs></svg>
